img/awards-3.svg

<svg width="163" height="163" viewBox="0 0 163 163" fill="none" xmlns="http://www.w3.org/2000/svg">
<path d="M0.155273 81.4028C0.155273 77.2584 6.09228 73.5849 6.75195 69.6289C7.41162 65.5786 2.88818 60.2097 4.11328 56.3479C5.43261 52.3918 12.2178 50.7905 14.0083 47.2112C15.8931 43.5378 13.2544 37.1328 15.6103 33.836C18.0605 30.5393 24.9399 31.1045 27.8613 28.1845C30.7827 25.2646 30.2173 18.2944 33.5156 15.9396C36.8139 13.4906 43.2221 16.2222 46.8974 14.3383C50.4785 12.4545 52.1748 5.67271 56.0385 4.44822C59.9023 3.22373 65.1796 7.74495 69.3261 7.08561C73.2841 6.42626 76.9594 0.492188 81.1059 0.492188C85.2524 0.492188 88.9277 6.42626 92.8857 7.08561C96.9379 7.74495 102.309 3.22373 106.173 4.44822C110.131 5.76691 111.733 12.5487 115.314 14.3383C118.99 16.2222 125.398 13.5848 128.696 15.9396C131.995 18.3886 131.429 25.2646 134.35 28.1845C137.272 31.1045 144.245 30.5393 146.601 33.836C149.052 37.1328 146.319 43.5378 148.203 47.2112C150.088 50.7905 156.873 52.486 158.099 56.3479C159.324 60.2097 154.8 65.4845 155.46 69.6289C156.12 73.5849 162.057 77.2584 162.057 81.4028C162.057 85.5473 156.12 89.2208 155.46 93.1768C154.8 97.2271 159.324 102.596 158.099 106.458C156.779 110.414 149.994 112.015 148.203 115.594C146.319 119.268 148.957 125.673 146.601 128.97C144.151 132.266 137.272 131.701 134.35 134.621C131.429 137.541 131.995 144.511 128.696 146.866C125.398 149.315 118.99 146.583 115.314 148.467C111.733 150.351 110.037 157.133 106.173 158.357C102.309 159.582 97.0322 155.061 92.8857 155.72C88.9277 156.379 85.2524 162.314 81.1059 162.314C76.9594 162.314 73.2841 156.379 69.3261 155.72C65.2739 155.061 59.9023 159.582 56.0385 158.357C52.0805 157.039 50.4785 150.257 46.8974 148.467C43.2221 146.583 36.8139 149.221 33.5156 146.866C30.2173 144.417 30.7827 137.541 27.8613 134.621C24.9399 131.701 17.9663 132.266 15.6103 128.97C13.1601 125.673 15.8931 119.268 14.0083 115.594C12.1235 112.015 5.33837 110.32 4.11328 106.458C2.88818 102.596 7.41162 97.3212 6.75195 93.1768C6.09228 89.2208 0.155273 85.5473 0.155273 81.4028Z" fill="#3C2915"/>
<path d="M81.2006 151.387C119.871 151.387 151.22 120.054 151.22 81.4024C151.22 42.7511 119.871 11.418 81.2006 11.418C42.5302 11.418 11.1816 42.7511 11.1816 81.4024C11.1816 120.054 42.5302 151.387 81.2006 151.387Z" fill="url(#paint0_linear)"/>
<path d="M81.2006 143.285C115.395 143.285 143.115 115.579 143.115 81.4015C143.115 47.224 115.395 19.5176 81.2006 19.5176C47.0062 19.5176 19.2861 47.224 19.2861 81.4015C19.2861 115.579 47.0062 143.285 81.2006 143.285Z" fill="white"/>
<path d="M81.2006 138.201C112.585 138.201 138.026 112.772 138.026 81.4031C138.026 50.0346 112.585 24.6055 81.2006 24.6055C49.8167 24.6055 24.375 50.0346 24.375 81.4031C24.375 112.772 49.8167 138.201 81.2006 138.201Z" stroke="#EEBF65" stroke-width="3" stroke-linecap="round" stroke-linejoin="round"/>
<path d="M140.571 97.9805L140.005 98.263C92.5092 123.412 63.8608 123.318 16.459 97.9805L2.32324 125.673V162.313L16.1763 152.235L30.0293 162.313V137.258C61.5991 147.149 95.5248 147.149 127.095 137.258V162.313L140.948 152.235L154.801 162.313V125.673L140.571 97.9805Z" fill="#3C2915"/>
<path d="M60.4678 89.0325H73.1899V55.3118H60.4678V45.0449H98.1631V55.3118H85.4409V89.0325H98.1631V99.2993H60.4678V89.0325Z" fill="#996523"/>
<path d="M127 158.451V109L154.706 121.81V158.451L140.853 148.372L127 158.451Z" fill="#996523"/>
<path d="M2.22852 158.451V121.81L29.9346 109V158.451L16.0815 148.372L2.22852 158.451Z" fill="#996523"/>
<path d="M154.706 121.811L154.141 122.094C106.644 147.243 49.7246 147.149 2.22852 121.811L16.3643 94.1191C63.7661 119.457 92.4145 119.551 139.911 94.4017L140.476 94.1191L154.706 121.811Z" fill="url(#paint1_linear)"/>
<path d="M55.8949 119.937L60.6482 131.495L65.1911 119.851L67.6226 119.829L67.7515 134.046L65.8767 134.064L65.8265 128.527L65.948 122.549L61.3848 134.105L59.9494 134.119L55.1874 122.678L55.4268 128.623L55.477 134.16L53.6022 134.177L53.4732 119.959L55.8949 119.937ZM75.1649 134.173C73.7327 134.187 72.5632 133.729 71.6563 132.799C70.7494 131.864 70.2887 130.608 70.2745 129.033L70.2714 128.701C70.2619 127.653 70.452 126.717 70.8417 125.893C71.2378 125.062 71.7918 124.413 72.5037 123.944C73.2221 123.469 74.0011 123.227 74.8409 123.219C76.2145 123.206 77.2863 123.649 78.0561 124.547C78.826 125.445 79.2186 126.737 79.2339 128.423L79.2407 129.175L72.083 129.241C72.1185 130.282 72.4289 131.122 73.0141 131.762C73.6058 132.394 74.3508 132.706 75.2492 132.698C75.8871 132.692 76.4263 132.557 76.8666 132.292C77.3069 132.028 77.6911 131.679 78.0192 131.247L79.1305 132.096C78.2575 133.464 76.9356 134.157 75.1649 134.173ZM74.8544 124.703C74.1253 124.71 73.5158 124.983 73.0258 125.521C72.5359 126.053 72.2366 126.798 72.1281 127.756L77.4207 127.707L77.4195 127.57C77.3591 126.653 77.1053 125.946 76.658 125.449C76.2108 124.945 75.6095 124.696 74.8544 124.703ZM85.6097 132.602C86.2542 132.596 86.8156 132.396 87.2938 132.001C87.772 131.606 88.0344 131.115 88.0812 130.529L89.7901 130.513C89.763 131.119 89.5599 131.697 89.1808 132.247C88.8017 132.797 88.2913 133.238 87.6498 133.57C87.0148 133.901 86.3392 134.07 85.6231 134.077C84.1844 134.09 83.0343 133.622 82.1728 132.673C81.3178 131.717 80.8827 130.406 80.8676 128.74L80.8649 128.437C80.8556 127.408 81.036 126.492 81.4064 125.688C81.7767 124.884 82.3114 124.257 83.0104 123.808C83.716 123.359 84.5505 123.13 85.514 123.121C86.6988 123.11 87.685 123.455 88.4726 124.158C89.2668 124.86 89.695 125.777 89.7574 126.91L88.0485 126.925C87.9902 126.242 87.7248 125.685 87.2521 125.253C86.7859 124.815 86.211 124.599 85.5274 124.605C84.6095 124.613 83.8997 124.952 83.398 125.621C82.9027 126.283 82.6607 127.239 82.672 128.489L82.6751 128.83C82.6862 130.048 82.9453 130.983 83.4525 131.636C83.9597 132.289 84.6788 132.611 85.6097 132.602ZM99.6198 124.651L96.0751 124.683L96.1577 133.784L94.3512 133.801L94.2686 124.7L90.7923 124.732L90.779 123.267L99.6065 123.186L99.6198 124.651ZM100.523 128.363C100.513 127.328 100.707 126.395 101.103 125.565C101.505 124.734 102.066 124.091 102.784 123.635C103.51 123.179 104.337 122.947 105.268 122.938C106.707 122.925 107.874 123.412 108.768 124.4C109.669 125.388 110.127 126.708 110.142 128.362L110.143 128.489C110.152 129.518 109.962 130.444 109.573 131.268C109.189 132.085 108.632 132.725 107.9 133.187C107.175 133.65 106.338 133.885 105.387 133.894C103.955 133.907 102.789 133.42 101.888 132.432C100.993 131.445 100.539 130.13 100.524 128.49L100.523 128.363ZM102.341 128.561C102.351 129.733 102.63 130.671 103.177 131.376C103.73 132.08 104.463 132.428 105.374 132.42C106.292 132.411 107.018 132.046 107.552 131.325C108.085 130.598 108.346 129.586 108.335 128.291C108.324 127.132 108.039 126.197 107.479 125.486C106.926 124.769 106.193 124.414 105.282 124.422C104.39 124.431 103.674 124.792 103.133 125.507C102.593 126.221 102.329 127.239 102.341 128.561Z" fill="white"/>
<path d="M136.519 123.6C132.749 124.071 129.545 121.998 129.545 121.998C129.545 121.998 132.278 119.267 136.047 118.89C139.817 118.419 143.021 120.491 143.021 120.491C143.021 120.491 140.288 123.223 136.519 123.6Z" fill="#EEBF65"/>
<path d="M132.184 115.405C132.089 119.173 129.639 122.093 129.639 122.093C129.639 122.093 127.377 118.985 127.472 115.217C127.566 111.449 130.016 108.529 130.016 108.529C130.016 108.529 132.278 111.638 132.184 115.405Z" fill="#EEBF65"/>
<path d="M142.927 116.065C139.346 117.29 135.765 115.971 135.765 115.971C135.765 115.971 137.932 112.769 141.419 111.544C145 110.32 148.581 111.638 148.581 111.638C148.581 111.638 146.508 114.841 142.927 116.065Z" fill="#EEBF65"/>
<path d="M136.99 108.906C137.649 112.58 135.859 115.97 135.859 115.97C135.859 115.97 133.032 113.427 132.278 109.754C131.618 106.08 133.409 102.689 133.409 102.689C133.409 102.689 136.33 105.233 136.99 108.906Z" fill="#EEBF65"/>
<path d="M20.8882 123.6C24.6577 124.071 27.8618 121.998 27.8618 121.998C27.8618 121.998 25.1289 119.267 21.3594 118.89C17.5899 118.419 14.3857 120.491 14.3857 120.491C14.3857 120.491 17.1187 123.223 20.8882 123.6Z" fill="#EEBF65"/>
<path d="M25.2236 115.405C25.3178 119.173 27.768 122.093 27.768 122.093C27.768 122.093 30.0297 118.985 29.9355 115.217C29.8413 111.449 27.3911 108.529 27.3911 108.529C27.3911 108.529 25.1293 111.638 25.2236 115.405Z" fill="#EEBF65"/>
<path d="M14.3857 116.065C17.9668 117.29 21.5478 115.971 21.5478 115.971C21.5478 115.971 19.3803 112.769 15.8935 111.544C12.3125 110.32 8.73145 111.638 8.73145 111.638C8.73145 111.638 10.8047 114.841 14.3857 116.065Z" fill="#EEBF65"/>
<path d="M20.3227 108.906C19.663 112.58 21.4536 115.97 21.4536 115.97C21.4536 115.97 24.2807 113.427 25.0346 109.754C25.6943 106.08 23.9038 102.689 23.9038 102.689C23.9038 102.689 20.9824 105.233 20.3227 108.906Z" fill="#EEBF65"/>
<defs>
<linearGradient id="paint0_linear" x1="11.1748" y1="81.4077" x2="151.283" y2="81.4077" gradientUnits="userSpaceOnUse">
<stop stop-color="#FFDC7C"/>
<stop offset="0.4947" stop-color="#EEBF65"/>
<stop offset="0.9939" stop-color="#996523"/>
</linearGradient>
<linearGradient id="paint1_linear" x1="2.25782" y1="117.486" x2="154.738" y2="117.486" gradientUnits="userSpaceOnUse">
<stop stop-color="#FFDC7C"/>
<stop offset="0.4947" stop-color="#EEBF65"/>
<stop offset="0.9939" stop-color="#996523"/>
</linearGradient>
</defs>
</svg>

<svg width="163" height="163" fill="none" xmlns="http://www.w3.org/2000/svg"><path d="M.155 81.403c0-4.145 5.937-7.818 6.597-11.774.66-4.05-3.864-9.42-2.639-13.281 1.32-3.956 8.105-5.557 9.895-9.137 1.885-3.673-.754-10.078 1.602-13.375 2.45-3.297 9.33-2.731 12.251-5.651 2.922-2.92 2.356-9.89 5.655-12.245 3.298-2.45 9.706.282 13.381-1.602 3.581-1.883 5.278-8.665 9.142-9.89 3.863-1.224 9.14 3.297 13.287 2.638 3.958-.66 7.633-6.594 11.78-6.594 4.146 0 7.822 5.934 11.78 6.594 4.052.659 9.423-3.862 13.287-2.638 3.958 1.319 5.56 8.1 9.141 9.89 3.676 1.884 10.084-.753 13.382 1.602 3.299 2.449 2.733 9.325 5.654 12.245 2.922 2.92 9.895 2.354 12.251 5.651 2.451 3.297-.282 9.702 1.602 13.375 1.885 3.58 8.67 5.275 9.896 9.137 1.225 3.862-3.299 9.136-2.639 13.28.66 3.957 6.597 7.63 6.597 11.775 0 4.144-5.937 7.818-6.597 11.774-.66 4.05 3.864 9.419 2.639 13.281-1.32 3.956-8.105 5.557-9.896 9.136-1.884 3.674.754 10.079-1.602 13.376-2.45 3.296-9.329 2.731-12.251 5.651-2.921 2.92-2.355 9.89-5.654 12.245-3.298 2.449-9.706-.283-13.382 1.601-3.581 1.884-5.277 8.666-9.141 9.89-3.864 1.225-9.14-3.296-13.287-2.637-3.958.659-7.634 6.594-11.78 6.594-4.147 0-7.822-5.935-11.78-6.594-4.052-.659-9.424 3.862-13.287 2.637-3.959-1.318-5.56-8.1-9.142-9.89-3.675-1.884-10.083.754-13.381-1.601-3.299-2.449-2.733-9.325-5.655-12.245-2.921-2.92-9.895-2.355-12.25-5.651-2.45-3.297.282-9.702-1.603-13.376-1.884-3.579-8.67-5.274-9.895-9.136-1.225-3.862 3.299-9.137 2.639-13.281-.66-3.956-6.597-7.63-6.597-11.774z" fill="#3C2915"/><path d="M81.2 151.387c38.671 0 70.02-31.333 70.02-69.985 0-38.65-31.349-69.984-70.02-69.984-38.67 0-70.018 31.333-70.018 69.984 0 38.652 31.348 69.985 70.019 69.985z" fill="url(#paint0_linear)"/><path d="M81.2 143.285c34.195 0 61.915-27.706 61.915-61.883 0-34.178-27.72-61.884-61.914-61.884-34.195 0-61.915 27.706-61.915 61.883 0 34.178 27.72 61.884 61.915 61.884z" fill="#fff"/><path d="M81.2 138.201c31.385 0 56.826-25.429 56.826-56.798 0-31.368-25.441-56.798-56.825-56.798-31.384 0-56.826 25.43-56.826 56.798 0 31.369 25.442 56.798 56.826 56.798z" stroke="#EEBF65" stroke-width="3" stroke-linecap="round" stroke-linejoin="round"/><path d="M140.571 97.98l-.566.283c-47.496 25.149-76.144 25.055-123.546-.282L2.323 125.673v36.64l13.853-10.078 13.853 10.078v-25.055a162.469 162.469 0 0097.066 0v25.055l13.853-10.078 13.853 10.078v-36.64l-14.23-27.692z" fill="#3C2915"/><path d="M60.468 89.032H73.19v-33.72H60.468V45.045h37.695v10.267H85.441v33.72h12.722V99.3H60.468V89.032zM127 158.451V109l27.706 12.81v36.641l-13.853-10.079L127 158.451zm-124.771 0V121.81L29.935 109v49.451L16.08 148.372 2.23 158.451z" fill="#996523"/><path d="M154.706 121.811l-.565.283c-47.497 25.149-104.416 25.055-151.912-.283l14.135-27.692c47.402 25.338 76.05 25.432 123.547.283l.565-.283 14.23 27.692z" fill="url(#paint1_linear)"/><path d="M55.895 119.937l4.753 11.558 4.543-11.644 2.432-.022.128 14.217-1.874.018-.05-5.537.121-5.978-4.563 11.556-1.436.014-4.762-11.441.24 5.945.05 5.537-1.875.017-.129-14.218 2.422-.022zm19.27 14.236c-1.432.014-2.602-.444-3.509-1.374-.907-.935-1.367-2.191-1.382-3.766l-.003-.332c-.01-1.048.181-1.984.57-2.808.397-.831.95-1.48 1.663-1.949a4.231 4.231 0 012.337-.725c1.374-.013 2.445.43 3.215 1.328.77.898 1.163 2.19 1.178 3.876l.007.752-7.158.066c.035 1.041.346 1.881.931 2.521.592.632 1.337.944 2.235.936.638-.006 1.177-.141 1.618-.406.44-.264.824-.613 1.152-1.045l1.111.849c-.873 1.368-2.194 2.061-3.965 2.077zm-.31-9.47c-.73.007-1.34.28-1.83.818-.49.532-.788 1.277-.897 2.235l5.293-.049-.002-.137c-.06-.917-.314-1.624-.761-2.121-.447-.504-1.049-.753-1.804-.746zm10.755 7.899a2.603 2.603 0 001.684-.601c.478-.395.74-.886.787-1.472l1.71-.016c-.028.606-.231 1.184-.61 1.734-.38.55-.89.991-1.531 1.323-.635.331-1.31.5-2.027.507-1.439.013-2.589-.455-3.45-1.404-.855-.956-1.29-2.267-1.305-3.933l-.003-.303c-.01-1.029.171-1.945.541-2.749s.905-1.431 1.604-1.88c.706-.449 1.54-.678 2.504-.687 1.185-.011 2.171.334 2.959 1.037.794.702 1.222 1.619 1.284 2.752l-1.709.015c-.058-.683-.323-1.24-.796-1.672-.466-.438-1.041-.654-1.725-.648-.918.008-1.627.347-2.129 1.016-.495.662-.737 1.618-.726 2.868l.003.341c.011 1.218.27 2.153.778 2.806.507.653 1.226.975 2.157.966zm14.01-7.951l-3.545.032.083 9.101-1.807.017-.082-9.101-3.477.032-.013-1.465 8.828-.081.013 1.465zm.903 3.712c-.01-1.035.184-1.968.58-2.798.402-.831.963-1.474 1.681-1.93.726-.456 1.553-.688 2.484-.697 1.439-.013 2.606.474 3.5 1.462.901.988 1.359 2.308 1.374 3.962l.001.127c.009 1.029-.181 1.955-.57 2.779a4.452 4.452 0 01-1.673 1.919c-.725.463-1.562.698-2.513.707-1.432.013-2.598-.474-3.499-1.462-.895-.987-1.349-2.302-1.364-3.942l-.001-.127zm1.818.198c.01 1.172.289 2.11.836 2.815.553.704 1.286 1.052 2.197 1.044.918-.009 1.644-.374 2.178-1.095.533-.727.794-1.739.783-3.034-.011-1.159-.296-2.094-.856-2.805-.553-.717-1.286-1.072-2.197-1.064-.892.009-1.608.37-2.149 1.085-.54.714-.804 1.732-.792 3.054z" fill="#fff"/><path d="M136.519 123.6c-3.77.471-6.974-1.602-6.974-1.602s2.733-2.731 6.502-3.108c3.77-.471 6.974 1.601 6.974 1.601s-2.733 2.732-6.502 3.109z" fill="#EEBF65"/><path d="M132.184 115.405c-.095 3.768-2.545 6.688-2.545 6.688s-2.262-3.108-2.167-6.876c.094-3.768 2.544-6.688 2.544-6.688s2.262 3.109 2.168 6.876zm10.743.66c-3.581 1.225-7.162-.094-7.162-.094s2.167-3.202 5.654-4.427c3.581-1.224 7.162.094 7.162.094s-2.073 3.203-5.654 4.427z" fill="#EEBF65"/><path d="M136.99 108.906c.659 3.674-1.131 7.064-1.131 7.064s-2.827-2.543-3.581-6.216c-.66-3.674 1.131-7.065 1.131-7.065s2.921 2.544 3.581 6.217zM20.888 123.6c3.77.471 6.974-1.602 6.974-1.602s-2.733-2.731-6.503-3.108c-3.77-.471-6.973 1.601-6.973 1.601s2.733 2.732 6.502 3.109z" fill="#EEBF65"/><path d="M25.224 115.405c.094 3.768 2.544 6.688 2.544 6.688s2.262-3.108 2.168-6.876c-.095-3.768-2.545-6.688-2.545-6.688s-2.262 3.109-2.167 6.876zm-10.838.66c3.58 1.225 7.162-.094 7.162-.094s-2.168-3.202-5.654-4.427c-3.582-1.224-7.163.094-7.163.094s2.074 3.203 5.655 4.427z" fill="#EEBF65"/><path d="M20.323 108.906c-.66 3.674 1.13 7.064 1.13 7.064s2.828-2.543 3.582-6.216c.66-3.674-1.131-7.065-1.131-7.065s-2.922 2.544-3.581 6.217z" fill="#EEBF65"/><defs><linearGradient id="paint0_linear" x1="11.175" y1="81.408" x2="151.283" y2="81.408" gradientUnits="userSpaceOnUse"><stop stop-color="#FFDC7C"/><stop offset=".495" stop-color="#EEBF65"/><stop offset=".994" stop-color="#996523"/></linearGradient><linearGradient id="paint1_linear" x1="2.258" y1="117.486" x2="154.738" y2="117.486" gradientUnits="userSpaceOnUse"><stop stop-color="#FFDC7C"/><stop offset=".495" stop-color="#EEBF65"/><stop offset=".994" stop-color="#996523"/></linearGradient></defs></svg>
